X:3197
T:Colledge Hornpipe. WM.074
T:College Hornpipe. WM.074
M:C
L:1/8
Q:180
S:Wm.Mittell's MS,New Romney,Kent,1799
R:Hornpipe
O:England
A:Kent
Z:vmp.Chris Partington
K:G
GF|G2G,4DC|B,DG4(3BAG)|A2A,4A-G|FAd2-d2ef|!
gfed edcB|cABc GFED|EGFA GBAc|B2G2-G2:|!
|:D-C|B,DGD B,DGD|E2C2-C2E-D|CEAE CEAE|F2D2-D2c-B|!
cde2-edcB|cABc GFED|(3EFG) (3FGA) (3GAB) (3ABc)|B2G2-G2:|]


